X: 0
T: We Wish You A Merry Christmas
Z: English Traditional
Z: Public Domain
L: 1/4
M: 4/4
Q: 1/4=120
V: P1 name="Staff"
%%MIDI program 1 48
V: P2 name="Staff-2"
%%MIDI program 2 48
V: P3 name="Staff-3"
%%MIDI program 3 32
V: P4 name="Staff-4"
%%MIDI program 4 45
V: P5 name="Staff-5"
%%MIDI program 5 45
V: P6 name="Staff-6"
%%MIDI program 6 58
V: P7 name="Staff-7"
%%MIDI program 7 9
K: C
[V: P1] z3z/8 C3/4F/8 |z/z/8 F3/8 G3/8F3/8E/4z/8 D3/4D/8- D/D/8D3/8- | D3/8G/-G/8z/8 G3/8A3/8G/8- G/4F3/8[C3/8-E3/8-] [C3/8E3/8]C/-C/8 |z/8 C3/4[^C/8A/8]z/z/8 A3/8 ^A3/8=A3/8G/4- G/8[D3/4F3/4]D/8 |z/z/8 C3/8 C3/8D/-D/8z/8 G3/4[C/8E/8]z/z/8 F3/8- | Fz/8 [C3/4c3/4][F/8f/8]z/z/8 [F3/8f3/8] [G3/8g3/8][F3/8f3/8][E/4e/4] |z/8 [D3/4d3/4][D/8d/8]z/z/8 [D3/8-d3/8-] [D3/8d3/8][G/-g/-][G/8g/8]z/8 [G3/8g3/8][A3/8a3/8][G/8-g/8-] | [G/4g/4][F3/8f3/8][E3/8-e3/8-] [E3/8e3/8][C/-c/-][C/8c/8]z/8 [C3/4c3/4][A/8a/8]z/z/8 [A3/8a3/8] | [^A3/8^a3/8][=A3/8=a3/8][G/4g/4]z/8 [F3/4f3/4][D/8d/8]z/z/8 [C3/8c3/8] [C3/8c3/8]d/-d/8 |z/8 g3/4[C/8e/8]z/z/8 [C3/8-A3/8-f3/8-] [CAf]z/8 C3/4F/8- | F/F/8F3/8- F3/8F/-F/8z/8 E3/4-E/8z/z/8 E3/8- | E3/8F/-F/8z/8 E3/4D/8- D/D/8C3/8- C |z/8 G3/4[C/8-A/8-] [C/A/][C/8A/8]G3/8- G3/8F/-F/8z/8 c3/4C/8- | C/C/8C3/8 C3/8D/-D/8z/8 G3/4[C/8E/8]z/z/8 [C3/8F3/8] |zz/8 C3/4F/8z/z/8 F3/8 G3/8F3/8E/4 |z/8 D3/4D/8z/z/8 D3/8z3/8 [D/-G/-][D/8G/8]z/8 [D3/8G3/8]A3/8G/8- | G/4F3/8E3/8- E3/8C/-C/8z/8 C3/4[^C/8-A/8-] [C/A/][C/8A/8][C3/8A3/8] | ^A3/8=A3/8G/4z/8 [D3/4F3/4]D/8z/z/8 C3/8 C3/8D/-D/8 |z/8 G3/4[C/8E/8]z/z/8 [C3/8F3/8]zz/8 c3/4[A/8-f/8-] | [A/f/][A/8f/8][^A3/8-f3/8-] [A3/8f3/8][c/-f/-][c/8f/8]z/8 [C3/4-G3/4-c3/4-e3/4-][C/8G/8c/8e/8]z/z/8 e3/8- | e3/8[D/-A/-f/-][D/8A/8f/8]z/8 [G3/4e3/4][F/8-d/8-] [F/d/][F/8d/8][C3/8-E3/8-c3/8-] [CEc] |z/8 g3/4[F/8-a/8-] [F/4a/4]c3/8[E3/8g3/8] c3/8[D3/8f3/8]c/4- c/8c'3/8E3/8c/8- | c/c/8c3/8 c3/8[F/-^A/-d/-][F/8A/8d/8]z/8 g3/4[C/8G/8A/8e/8]z/z/8 [C3/8F3/8=A3/8c3/8f3/8] |zz/8 c3/4[A/8f/8]z/z/8 [A3/8f3/8] g3/8f3/8e/4 |z/8 [^A3/4d3/4][A/8d/8]z/z/8 [A3/8d3/8]z3/8 [B/-g/-][B/8g/8]z/8 [B3/8g3/8]=a3/8g/8- | g/4f3/8[C3/8-G3/8-e3/8-] [C3/8G3/8e3/8]c/-c/8z/8 c3/4[^c/8a/8]z/z/8 [c3/8a3/8] | ^a3/8=a3/8g/4z/8 [d3/4f3/4]d/8z/z/8 c3/8 c3/8d/-d/8 |z/8 g3/4[G/8c/8e/8]z/z/8 [C3/8A3/8c3/8f3/8]zz/8 [C3/4c3/4][C/8F/8f/8] |z/z/8 [F3/8f3/8] [G3/8g3/8][F3/8f3/8][E/4e/4]z/8 [D3/4d3/4][D/8d/8]z/z/8 [D3/8-d3/8-] | [D3/8d3/8][D/-G/-g/-][D/8G/8g/8]z/8 [G3/8g3/8][A3/8a3/8][G/8-g/8-] [G/4g/4][F3/8f3/8][E3/8-e3/8-] [E3/8e3/8][C/-c/-][C/8c/8] |z/8 [C3/4c3/4][E/8A/8a/8]z/z/8 [A3/8a3/8] [^A3/8^a3/8][=A3/8=a3/8][G/4g/4]z/8 [F3/4f3/4][D/8d/8] |z/z/8 [C3/8c3/8] [C3/8c3/8][F/-^A/-d/-][F/8A/8d/8]z/8 [D3/4-A3/4-g3/4-][D/8A/8g/8] [CGce] | [A2c2f2]z2|]
[V: P2] z3z3/4z/8 A,/8- | A,2 A,/8^A,3/4-A,/8 A, | ^A,3/8B,/-B,/8 B,2z | z4 |zz3/8 ^A,/-A,/8 A,z/z/8 =A,3/8- | A,z3 | z4 | z4 |z3z3/8 ^A,/-A,/8 |z/8 ^A,3/4-A,/8z/z/8 F,3/8- F,z3/4z/8 [F,/8-=A,/8-] | [F,2A,2]z/8 [C,3/4-G,3/4-][C,/8G,/8] [C,G,] |z3/8 [D,/-A,/-][D,/8A,/8]z/8 [G,,3/4-G,3/4-][G,,/8G,/8] [G,,/G,/][G,,/8G,/8][C,3/8-E,3/8-] [C,E,] |z3/4z/8 F,/8- F,/F,/8E,3/8- E,3/8D,/-D,/8z/8 A,3/4-A,/8 | A,/A,/8A,,3/8- A,,3/8[^A,,/-F,/-^A,/-][A,,/8F,/8A,/8] [A,,3/4F,3/4A,3/4][A,,/8F,/8A,/8][C,/8A,/8]z/z/8 [F,,3/8C,3/8F,3/8=A,3/8] |z3/z3/8 [F,,/8C,/8F,/8A,/8]z/z/8 A,3/8- A, |z/8 [^A,,3/4F,3/4^A,3/4]A,/8z/z/8 A,3/8z3/8 [G,,/-D,/-G,/-B,/-][G,,/8D,/8G,/8B,/8]z/8 B,3/4-B,/8 |z/z/8 [C,3/8-E,3/8-G,3/8-] [C,3/E,3/G,3/] ^A,,3/8[=A,,/8-G,/8-] [A,,G,] | [A,,3/8G,3/8]^C,/-C,/8z/8 D,3/4-D,/8 D,/D,/8[A,,3/8F,3/8]z3/8 [^A,,/-F,/-][A,,/8F,/8] | [^A,,3/4F,3/4][A,,/8F,/8][C,/8G,/8]z/z/8 [F,,3/8C,3/8F,3/8=A,3/8]z3/z3/8 F,/8- | F,/F,/8G,3/8- G,3/8A,/-A,/8z2 |zz/8 G,3/4-G,/8 G,/G,/8[C,3/8-G,3/8-] [C,G,] |z3z/8 A,3/4-A,/8 | A,z3/8 ^A,/-A,/8 A,z/z/8 F,3/8- | F,z3/4z/8 [F,,/8-C,/8-F,/8-] [F,,2C,2F,2] |z/8 [^A,,3/4-F,3/4-^A,3/4-][A,,/8F,/8A,/8] [A,,F,A,]z3/8 [G,,/-D,/-G,/-][G,,/8D,/8G,/8] [G,,D,G,] |z/z/8 [C,3/8-G,3/8-] [C,3/G,3/] [C,3/8G,3/8][A,,/8-A,/8-] [A,,A,] | [A,,3/8A,3/8]^C,/-C,/8z/8 D,3/4-D,/8 D,/D,/8[A,,3/8-F,3/8-] [A,,3/8F,3/8][^A,,/-F,/-][A,,/8F,/8] |z3/4z/8 [C,/8G,/8]z/z/8 F,3/8z3/z3/8 A,,/8- | A,,2 A,,/8^A,,3/4-A,,/8 A,, | ^A,,3/8B,,/-B,,/8 B,,3/ B,,/8C,3/8- C, | C,3/4C,/8^C,/8- C,2 C,/8D,3/4-D,/8 | D,z3/8 ^A,/-A,/8z/8 A,3/4-A,/8 [C,G,] | [F,,2C,2F,2]z2|]
[V: P3] z3z/8 C,,3/4F,,/8- | F,, F,,3/8F,,,/-F,,,/8 F,,,/8^A,,,3/4-A,,,/8 A,,, | ^A,,,3/8G,,,/-G,,,/8 G,,,3/4G,,,/8B,,,/8- B,,,/B,,,/8C,,3/8- C,, | C,,/^A,,,3/8=A,,,/8- A,,, A,,,3/8^C,,/-C,,/8 C,,/8D,,3/4-D,,/8 | D,,/D,,/8A,,,3/8- A,,,3/8^A,,,/-A,,,/8 A,,,3/4A,,,/8C,,/8- C,,/C,,/8F,,,3/8- | F,,,3/ F,,,3/8F,,/8- F,, F,,3/8F,,,/-F,,,/8 | F,,,/8^A,,,3/4-A,,,/8 A,,,/A,,,/8F,,3/8 A,,3/8G,,/-G,,/8 G,,3/4G,,/8B,,/8- | B,,/B,,/8C,3/8- C,3/8C,,/-C,,/8 C,,/8C,3/8^A,,3/8=A,,/8- A,,/A,,/8A,,,3/8- | A,,,3/8^C,,/-C,,/8 C,,/8D,,3/4-D,,/8 D,,/D,,/8A,,,3/8- A,,,3/8^A,,,/-A,,,/8 | ^A,,,3/4A,,,/8C,,/8- C,,/C,,/8F,,,3/8- F,,,3/ F,,,3/8F,,/8- | F,,2 F,,/8C,3/4-C,/8 C, | C,3/8D,/-D,/8 D,/8G,,3/4G,,,/8- G,,,/G,,,/8C,,3/8- C,, | C,,3/4C,,/8F,,/8- F,,/F,,/8E,,3/8- E,,3/8D,,/-D,,/8z/8 A,,3/4A,,,/8- | A,,, A,,,3/8^A,,,/-A,,,/8 A,,,3/4A,,,/8C,,/8- C,,/C,,/8F,,3/8- | F,,3/ F,,3/8F,,,/8- F,,, F,,,3/8F,,3/8F,,,/4- | F,,,/8^A,,,3/4-A,,,/8 A,,,/A,,,/8=A,,,3/8- A,,,3/8G,,,/-G,,,/8 G,,,/D,,3/8G,,/8- | G,,/4G,,,3/8C,,3/8 G,,3/8C,3/8D,/4- D,/8C,3/8G,,3/8A,,/8- A,, | A,,3/8^C,,/-C,,/8 C,,/8D,,3/4-D,,/8 D,,/D,,/8A,,,3/8- A,,,3/8^A,,,/-A,,,/8 | ^A,,,/8A,,3/4C,,/8- C,,/C,,/8F,,3/8- F,,3/ F,,3/8F,,,/8- | F,,,2 F,,,/8C,,3/4-C,,/8 C,, | C,,3/8D,,/-D,,/8 D,,/8G,,,3/4G,,/8- G,,/G,,/8C,,3/8- C,, | C,,3/4C,,/8F,,/8- F,,/F,,/8E,,3/8- E,,3/8D,,/-D,,/8 D,,/8A,,3/4A,,,/8- | A,,,/A,,,/8A,,3/8- A,,3/8^A,,3/8C,/4z/8 D,3/4C,/8- C,/C,/8F,,3/8- | F,,3/ F,,3/8F,,,/8- F,,, F,,,3/8F,,/-F,,/8 |z/8 ^A,,,3/4-A,,,/8 A,,,/A,,,/8=A,,,3/8- A,,,3/8G,,,/-G,,,/8 G,,,3/4G,,,/8G,,/8- | G,,/G,,/8C,,3/8 G,,3/8C,3/8D,/4- D,/8C,3/8^A,,3/8=A,,/8- A,, | A,,3/8^C,,/-C,,/8 C,,/8D,,3/4-D,,/8 D,,/D,,/8A,,,3/8- A,,,3/8^A,,,/-A,,,/8 |z/8 ^A,,,3/4C,,/8- C,,/C,,/8F,,3/8- F,,3/ F,,3/8F,,,/8- | F,,, F,,,3/8F,,3/8F,,,/4- F,,,/8^A,,,3/8F,,3/8A,,/8- A,,/4C,3/8D,3/8 | F,3/8G,/-G,/8 G,/8G,,3/4G,,,/8- G,,,/G,,,/8C,,3/8- C,,3/4G,,/4- | G,,/8C,3/8^A,,3/8=A,,/8- A,,/A,,/8A,,,3/8- A,,,3/8^C,,/-C,,/8 C,,/8D,,3/4D,/8- | D,/4D,,3/8A,,,3/8- A,,,3/8^A,,,/-A,,,/8 A,,,/8A,,3/4-A,,/8 C,, | F,,,3z|]
[V: P4] z3z3/4z/8 [A,/8C/8F/8] |z/z/8 [A,3/8C3/8F3/8]z3/8 [A,/-C/-F/-][A,/8C/8F/8]z/8 [^A,3/4D3/4F3/4][A,/8D/8F/8]z/z/8 [A,3/8D3/8F3/8] |z3/8 [B,/-D/-G/-][B,/8D/8G/8]z/8 [B,3/4D3/4G3/4][B,/8D/8G/8]z/z/8 [C3/8E3/8G3/8]z3/8 [C/-E/-G/-][C/8E/8G/8] |z/8 [C3/4E3/4G3/4][^C/8E/8A/8]z/z/8 [C3/8E3/8A3/8]z3/8 [C/-E/-A/-][C/8E/8A/8]z/8 [D3/4F3/4A3/4][D/8F/8A/8] |z/z/8 [C3/8F3/8A3/8]z3/8 [^A,/-D/-F/-][A,/8D/8F/8]z/8 [A,3/4D3/4F3/4][C/8E/8G/8]z/z/8 [=A,3/8-C3/8-F3/8-] | [A,CF]z3/4z/8 [C/8F/8A/8]z/z/8 [C3/8F3/8A3/8]z3/8 [C/-F/-A/-][C/8F/8A/8] |z/8 [D3/4F3/4^A3/4][D/8F/8A/8]z/z/8 [D3/8F3/8A3/8]z3/8 [D/-G/-B/-][D/8G/8B/8]z/8 [D3/4G3/4B3/4][D/8G/8B/8] |z/z/8 [E3/8G3/8c3/8]z3/8 [E/-G/-c/-][E/8G/8c/8]z/8 [E3/4G3/4c3/4][E/8A/8^c/8]z/z/8 [E3/8A3/8c3/8] |z3/8 [E/-A/-^c/-][E/8A/8c/8]z/8 [F3/4A3/4d3/4][F/8A/8d/8]z/z/8 [F3/8A3/8=c3/8]z3/8 [F/-^A/-d/-][F/8A/8d/8] |z/8 [F3/4^A3/4d3/4][E/8G/8c/8]z/z/8 [F3/8-=A3/8-c3/8-] [FAc]z |z/4 F3/8c3/8 A3/8c3/8A/4z/ E3/8c/8- c/4G3/8c3/8 | G3/8F3/8c/4z/8 E3/8c3/8D/8- D/4B3/8E3/8 G3/8c3/8d/4 |z/8 e3/8c3/8f/8- f/4A3/8e3/8 G3/8d3/8F/4z/8 c3/8E3/8A/8 |z/4 c3/8A3/8 E3/8D3/8^A/4z/8 F3/8A3/8E/8z/4 G3/8[C3/8-F3/8-] | [CF]z3/4z/8 [F/8A/8c/8]z/z/8 [F3/8A3/8c3/8]z3/8 [F/-A/-c/-][F/8A/8c/8] |z/8 [F3/4^A3/4d3/4][F/8A/8d/8]z/z/8 [F3/8A3/8d3/8]z3/8 [G/-B/-d/-][G/8B/8d/8]z/8 [G3/4B3/4d3/4][G/8B/8d/8] |z/z/8 [G3/8c3/8e3/8]z3/8 [G/-c/-e/-][G/8c/8e/8]z/8 [G3/4c3/4e3/4][A/8^c/8e/8]z/z/8 [A3/8c3/8e3/8] |z3/8 [A/-^c/-e/-][A/8c/8e/8]z/8 [A3/4d3/4f3/4][A/8d/8f/8]z/z/8 [A3/8=c3/8f3/8]z3/8 [^A/-d/-f/-][A/8d/8f/8] |z/8 [^A3/4d3/4f3/4][G/8c/8e/8]z/z/8 [=A3/8-c3/8-f3/8-] [Acf]z3/4z/8 F/8- | Fzz/8 [C3/4-E3/4-][C/8E/8] [CE] |z3/8 [D/-F/-][D/8F/8] [D/8F/8][C3/4E3/4][G,/8-D/8-] [G,/D/][G,/8D/8]C3/8- C | C3/4C/8A/8- A/A/8G3/8- G3/8F/-F/8 F/8[A,3/4-E3/4-c3/4-][A,/8E/8c/8] | [A,Ec] [A,3/8E3/8c3/8][^A,/-D/-][A,/8D/8] [A,/8D/8]G3/4[C/8-E/8-] [C/E/][C/8E/8][C3/8-F3/8-] | [CF]z3/4z/8 [A/8c/8f/8]z/z/8 [A3/8c3/8f3/8]z3/8 [A/-c/-f/-][A/8c/8f/8] |z/8 [^A3/4d3/4f3/4][A/8d/8f/8]z/z/8 [A3/8d3/8f3/8]z3/8 [G/-B/-d/-][G/8B/8d/8]z/8 [G3/4B3/4d3/4][G/8B/8d/8] |z/z/8 [G3/8c3/8e3/8]z3/8 [G/-c/-e/-][G/8c/8e/8]z/8 [G3/4c3/4e3/4][A/8^c/8e/8]z/z/8 [A3/8c3/8e3/8] |z3/8 [A/-^c/-e/-][A/8c/8e/8]z/8 [A3/4d3/4f3/4][A/8d/8f/8]z/z/8 [A3/8=c3/8f3/8]z3/8 [^A/-d/-f/-][A/8d/8f/8] |z/8 [^A3/4d3/4f3/4][G/8c/8e/8]z/z/8 [=A3/8-c3/8-f3/8-] [Acf]z3/4z/8 A,/8- | A,2z/8 D3/4-D/8 D | D3/8B,/-B,/8 B,3/ B,/8E3/8- E | E3/4E/8[^C/8G/8a/8]z/z/8 a3/8 ^a3/8[=A,3/8=a3/8]g/4z/8 [D3/4F3/4f3/4]d/8 |z/z/8 [A,3/8F3/8c3/8] c3/8[^A,/-F/-^A/-d/-][A,/8F/8A/8d/8]z/8 [A,3/4-F3/4-A3/4-d3/4-g3/4-][A,/8F/8A/8d/8g/8] [G,CGce] | [C2A2c2f2]z2|]
[V: P5]  z4 | z4 | z4 | z4 | z4 | z4 | z4 | z4 | z4 | z4 | z4 | z4 | z4 | z4 | z4 | z4 | z4 | z4 | z4 | z4 |z2z/z/8 E,3/8- E, | E,3/4E,/8F,/8- F,/F,/8E,3/8- E,3/8D,/-D,/8z |z3z/z/8 F,3/8- | F,z3 | z4 | z4 | z4 |z3z3/4z/8 F,,/8- | F,,2 F,,/8^A,,3/4-A,,/8 A,, | ^A,,3/8G,,/-G,,/8 G,,3/ G,,/8C,3/8- C, | C,z3 |z3 C, | F,2z2|]
[V: P6]  z4 | z4 | z4 | z4 | z4 | z4 | z4 | z4 | z4 |z3z3/4z/8 F/8- | F/4G3/8A3/8 c3/8A3/8F/4z/ E3/8G/8- G/4c3/8G3/8 | E3/8F3/8c/4z/8 E3/8c3/8D/8- D/4B3/8E3/8 G3/8c3/8d/4 |z/8 e3/8c3/8A/8- A/A/8G3/8 c3/8F/-F/8z/8 c3/4E/8- | E/E/8A3/8 E3/8F/-F/8z/8 ^A3/4G/8- G/G/8=A3/8- | Az3 | z4 | z4 | z4 | z4 |z/4 F3/8G3/8 A3/8c3/8A/4z/ E3/8G/8z/4 c3/8G3/8 | E3/8F3/8c/4z/8 E3/8c3/8D/8- D/4B3/8E3/8 G3/8c3/8d/4 |z/8 e3/8c3/8A/8- A/4c3/8G3/8 c3/8F3/8c/4z/8 E3/8A3/8c/8- | c/4e3/8c3/8 A3/8F3/8d/4z/8 ^A3/8F3/8E/8- E/4G3/8F3/8- | Fz3 | z4 | z4 | z4 |z3z3/4z/8 c/8- | c/4A3/8F3/8 C3/8c3/8A/4- A/8d3/8^A3/8F/8- F/4D3/8d3/8 | ^A3/8d3/8B/4- B/8G3/8D3/8d/8- d/4B3/8e3/8 c3/8G3/8E/4- | E/8e3/8c3/8e/8- e/4^c3/8G3/8 E3/8e3/8G/4z/8 f3/8g3/8a/8- | a/4f3/8e3/8 d3/8f/-f/8z/8 d3/4-d/8 c | f2z2|]
[V: P7]  z4 | z4 | z4 | z4 | z4 |zz/8 c'3/4f'/8- f'/f'/8f'3/8 g'3/8f'3/8e'/4 |z/8 d'3/4d'/8z/z/8 d'3/8- d'3/8g'/-g'/8z/8 g'3/8a'3/8g'/8 |z/4 f'3/8e'3/8- e'3/8c'/-c'/8z/8 c'3/4a'/8z/z/8 a'3/8 | ^a'3/8=a'3/8g'/4z/8 f'3/4d'/8z/z/8 c'3/8 c'3/8d'/-d'/8 |z/8 g'3/4e'/8z/z/8 f'3/8- f'z | z4 | z4 | z4 | z4 | z4 | z4 | z4 | z4 | z4 | z4 | z4 | z4 | z4 | z4 | z4 | z4 | z4 |z3z/8 c'3/4f'/8- | f'/f'/8f'3/8 g'3/8f'3/8e'/4- e'/8d'3/4d'/8z/z/8 d'3/8- | d'3/8g'/-g'/8z/8 g'3/8a'3/8g'/8- g'/4f'3/8e'3/8- e'3/8c'/-c'/8 |z/8 c'3/4a'/8- a'/a'/8a'3/8 ^a'3/8=a'3/8g'/4z/8 f'3/4a'/8- | a'/a'/8f'3/8 f'3/8^a'/-a'/8z/8 g'3/4-g'/8 c'' | a'z3|]

